public/assets/rv-logo-bimi.svg

<?xml version="1.0" encoding="UTF-8"?>
<svg xmlns="http://www.w3.org/2000/svg" version="1.2" baseProfile="tiny-ps" width="320" height="320" viewBox="0 0 320 320">
  <title>Robert Ventures</title>
  <g id="Group">
    <path fill="#5028ff" fill-rule="evenodd" stroke="none" d="M159.994614 110.832748L0 270.829285l42.665455 42.664978L159.990295 196.169403l117.329651 117.330597 42.666413-42.66687L202.655762 153.502991l.004318-.004807-42.665466-42.665436z"/>
    <path fill="#5028ff" fill-rule="evenodd" stroke="none" d="M21.664158 57.835083c-.111357-.107971-.222233-.217438-.33215-.327332-11.781731-11.781707-11.781731-30.883728 0-42.665924 6.103979-6.103989 14.17302-9.045334 22.171025-8.824539v-.017273l143.302143.00528c23.816437.02832 47.095733 7.104278 66.901382 20.337493 19.843094 13.26056 35.310654 32.107178 44.444779 54.158218 9.133636 22.050552 11.523468 46.314789 6.867614 69.723221-3.167907 15.926407-9.50177 30.970596-18.539459 44.275329l-44.254669-44.25325c9.307877-21.965103 5.00769-48.324493-12.897705-66.229889-11.781723-11.782196-27.223343-17.678345-42.665436-17.678345H115.498024l23.155464 23.155472-42.665451 42.665451-74.323879-74.323898z"/>
  </g>
</svg>

<?xml version="1.0" encoding="UTF-8"?>
<svg xmlns="http://www.w3.org/2000/svg" width="320" height="320" viewBox="0 0 320 320" version="1.2" baseProfile="tiny">
  <g id="Group">
    <path fill="#5028ff" fill-rule="evenodd" stroke="none" d="M 159.994614 110.832748 L 0 270.829285 L 42.665455 313.494263 L 159.990295 196.169403 L 277.319946 313.5 L 319.986359 270.83313 L 202.655762 153.502991 L 202.66008 153.498184 L 159.994614 110.832748 Z"></path>
    <path fill="#5028ff" fill-rule="evenodd" stroke="none" d="M 21.664158 57.835083 C 21.552801 57.727112 21.441925 57.617645 21.332008 57.507751 C 9.550277 45.726044 9.550277 26.624023 21.332008 14.841827 C 27.435987 8.737823 35.505028 5.796478 43.503033 6.017273 L 43.503033 6 L 186.805176 6.00528 C 210.621613 6.0336 233.900909 13.109558 253.706558 26.342773 C 273.549652 39.603333 289.017212 58.449951 298.151337 80.500992 C 307.284973 102.551544 309.674805 126.815781 305.018951 150.224213 C 301.851044 166.15062 295.517181 181.194809 286.479492 194.499542 L 242.224823 150.246292 C 251.5327 128.281189 247.232513 101.921799 229.327118 84.016403 C 217.545395 72.234207 202.103775 66.338058 186.661682 66.338058 L 115.498024 66.338058 L 138.653488 89.49353 L 95.988037 132.158981 L 21.664158 57.835083 Z"></path>
  </g>
</svg>
